X:41
T:The Lass of Killakranky
B:Terry "Cuz" Teahan "Sliabh Luachra on Parade" 1980
Z:Patrick Cavanagh
M:12/8
L:1/8
R:Slide
K:D
| E2F G2A B2c d3 | BcB A2F d2F D3 | 
E2F G2A B2c d2B | A2F d2F E3 E3 :| 
| e2f g2f e2c d3 | BcB A2F d2F D3 | 
e2f g2f e2c d2B | A2F d2F E3 E3 :|| 

